static/img/kroki/358e998878d508f96340d2ba3dcdb334.svg

<?xml version="1.0" encoding="us-ascii" standalone="no"?><svg xmlns="http://www.w3.org/2000/svg" xmlns:xlink="http://www.w3.org/1999/xlink" contentStyleType="text/css" height="573px" preserveAspectRatio="none" style="width:385px;height:573px;" version="1.1" viewBox="0 0 385 573" width="385px" zoomAndPan="magnify"><defs/><g><!--class group--><g id="elem_group"><rect codeLine="23" fill="#3D176E" height="39.7891" id="group" rx="2.5" ry="2.5" style="stroke:#000D19;stroke-width:0.5;" width="90" x="46" y="267.58"/><ellipse cx="61" cy="287.4745" fill="#ADD1B2" rx="11" ry="11" style="stroke:#181818;stroke-width:1.0;"/><path d="M63.9688,293.1152 Q63.3906,293.412 62.75,293.5527 Q62.1094,293.7089 61.4063,293.7089 Q58.9063,293.7089 57.5781,292.0683 Q56.2656,290.412 56.2656,287.287 Q56.2656,284.162 57.5781,282.5058 Q58.9063,280.8495 61.4063,280.8495 Q62.1094,280.8495 62.75,281.0058 Q63.4063,281.162 63.9688,281.4589 L63.9688,284.1777 Q63.3438,283.5995 62.75,283.3339 Q62.1563,283.0527 61.5313,283.0527 Q60.1875,283.0527 59.5,284.1308 Q58.8125,285.1933 58.8125,287.287 Q58.8125,289.3808 59.5,290.4589 Q60.1875,291.5214 61.5313,291.5214 Q62.1563,291.5214 62.75,291.2558 Q63.3438,290.9745 63.9688,290.3964 L63.9688,293.1152 Z " fill="#000000"/><text fill="#D9B8FF" font-family="Helvetica" font-size="17" lengthAdjust="spacing" textLength="48" x="80" y="293.3598">group</text></g><!--class microsoft_graph_entity--><g id="elem_microsoft_graph_entity"><rect codeLine="26" fill="#3D176E" height="39.7891" id="microsoft_graph_entity" rx="2.5" ry="2.5" style="stroke:#000D19;stroke-width:0.5;" width="236" x="142" y="367.37"/><ellipse cx="157" cy="387.2645" fill="#ADD1B2" rx="11" ry="11" style="stroke:#181818;stroke-width:1.0;"/><path d="M159.9688,392.9052 Q159.3906,393.202 158.75,393.3427 Q158.1094,393.4989 157.4063,393.4989 Q154.9063,393.4989 153.5781,391.8583 Q152.2656,390.202 152.2656,387.077 Q152.2656,383.952 153.5781,382.2958 Q154.9063,380.6395 157.4063,380.6395 Q158.1094,380.6395 158.75,380.7958 Q159.4063,380.952 159.9688,381.2489 L159.9688,383.9677 Q159.3438,383.3895 158.75,383.1239 Q158.1563,382.8427 157.5313,382.8427 Q156.1875,382.8427 155.5,383.9208 Q154.8125,384.9833 154.8125,387.077 Q154.8125,389.1708 155.5,390.2489 Q156.1875,391.3114 157.5313,391.3114 Q158.1563,391.3114 158.75,391.0458 Q159.3438,390.7645 159.9688,390.1864 L159.9688,392.9052 Z " fill="#000000"/><text fill="#D9B8FF" font-family="Helvetica" font-size="17" lengthAdjust="spacing" textLength="194" x="176" y="393.1498">microsoft_graph_entity</text></g><!--class microsoft_graph_group--><g id="elem_microsoft_graph_group"><rect codeLine="29" fill="#3D176E" height="39.7891" id="microsoft_graph_group" rx="2.5" ry="2.5" style="stroke:#000D19;stroke-width:0.5;" width="234" x="7" y="528.16"/><ellipse cx="22" cy="548.0545" fill="#ADD1B2" rx="11" ry="11" style="stroke:#181818;stroke-width:1.0;"/><path d="M24.9688,553.6952 Q24.3906,553.992 23.75,554.1327 Q23.1094,554.2889 22.4063,554.2889 Q19.9063,554.2889 18.5781,552.6483 Q17.2656,550.992 17.2656,547.867 Q17.2656,544.742 18.5781,543.0858 Q19.9063,541.4295 22.4063,541.4295 Q23.1094,541.4295 23.75,541.5858 Q24.4063,541.742 24.9688,542.0389 L24.9688,544.7577 Q24.3438,544.1795 23.75,543.9139 Q23.1563,543.6327 22.5313,543.6327 Q21.1875,543.6327 20.5,544.7108 Q19.8125,545.7733 19.8125,547.867 Q19.8125,549.9608 20.5,551.0389 Q21.1875,552.1014 22.5313,552.1014 Q23.1563,552.1014 23.75,551.8358 Q24.3438,551.5545 24.9688,550.9764 L24.9688,553.6952 Z " fill="#000000"/><text fill="#D9B8FF" font-family="Helvetica" font-size="17" lengthAdjust="spacing" textLength="192" x="41" y="553.9398">microsoft_graph_group</text></g><!--class microsoft_resource--><g id="elem_microsoft_resource"><rect codeLine="32" fill="#3D176E" height="39.7891" id="microsoft_resource" rx="2.5" ry="2.5" style="stroke:#000D19;stroke-width:0.5;" width="200" x="157" y="167.79"/><ellipse cx="172" cy="187.6845" fill="#ADD1B2" rx="11" ry="11" style="stroke:#181818;stroke-width:1.0;"/><path d="M174.9688,193.3252 Q174.3906,193.622 173.75,193.7627 Q173.1094,193.9189 172.4063,193.9189 Q169.9063,193.9189 168.5781,192.2783 Q167.2656,190.622 167.2656,187.497 Q167.2656,184.372 168.5781,182.7158 Q169.9063,181.0595 172.4063,181.0595 Q173.1094,181.0595 173.75,181.2158 Q174.4063,181.372 174.9688,181.6689 L174.9688,184.3877 Q174.3438,183.8095 173.75,183.5439 Q173.1563,183.2627 172.5313,183.2627 Q171.1875,183.2627 170.5,184.3408 Q169.8125,185.4033 169.8125,187.497 Q169.8125,189.5908 170.5,190.6689 Q171.1875,191.7314 172.5313,191.7314 Q173.1563,191.7314 173.75,191.4658 Q174.3438,191.1845 174.9688,190.6064 L174.9688,193.3252 Z " fill="#000000"/><text fill="#D9B8FF" font-family="Helvetica" font-size="17" lengthAdjust="spacing" textLength="158" x="191" y="193.5698">microsoft_resource</text></g><!--class resource--><g id="elem_resource"><rect codeLine="35" fill="#3D176E" height="39.7891" id="resource" rx="2.5" ry="2.5" style="stroke:#000D19;stroke-width:0.5;" width="113" x="78.5" y="7"/><ellipse cx="93.5" cy="26.8945" fill="#ADD1B2" rx="11" ry="11" style="stroke:#181818;stroke-width:1.0;"/><path d="M96.4688,32.5352 Q95.8906,32.832 95.25,32.9727 Q94.6094,33.1289 93.9063,33.1289 Q91.4063,33.1289 90.0781,31.4883 Q88.7656,29.832 88.7656,26.707 Q88.7656,23.582 90.0781,21.9258 Q91.4063,20.2695 93.9063,20.2695 Q94.6094,20.2695 95.25,20.4258 Q95.9063,20.582 96.4688,20.8789 L96.4688,23.5977 Q95.8438,23.0195 95.25,22.7539 Q94.6563,22.4727 94.0313,22.4727 Q92.6875,22.4727 92,23.5508 Q91.3125,24.6133 91.3125,26.707 Q91.3125,28.8008 92,29.8789 Q92.6875,30.9414 94.0313,30.9414 Q94.6563,30.9414 95.25,30.6758 Q95.8438,30.3945 96.4688,29.8164 L96.4688,32.5352 Z " fill="#000000"/><text fill="#D9B8FF" font-family="Helvetica" font-size="17" lengthAdjust="spacing" textLength="71" x="112.5" y="32.7798">resource</text></g><!--reverse link resource to group--><g id="link_resource_group"><path codeLine="38" d="M128.7435,64.6554 C120.6335,112.3654 102.49,218.98 94.3,267.08 " fill="none" id="resource-backto-group" style="stroke:#FFAF37;stroke-width:2.0;"/><polygon fill="none" points="131.76,46.91,122.8284,63.65,134.6587,65.6609,131.76,46.91" style="stroke:#FFAF37;stroke-width:2.0;"/></g><!--reverse link microsoft_resource to microsoft_graph_entity--><g id="link_microsoft_resource_microsoft_graph_entity"><path codeLine="39" d="M257.5664,225.9879 C258.1464,263.7579 259.13,329.05 259.71,366.88 " fill="none" id="microsoft_resource-backto-microsoft_graph_entity" style="stroke:#FFAF37;stroke-width:2.0;"/><polygon fill="none" points="257.29,207.99,251.5671,226.08,263.5657,225.8958,257.29,207.99" style="stroke:#FFAF37;stroke-width:2.0;"/></g><!--reverse link group to microsoft_graph_group--><g id="link_group_microsoft_graph_group"><path codeLine="40" d="M95.7059,325.3455 C101.7859,373.0455 115.39,479.56 121.53,527.66 " fill="none" id="group-backto-microsoft_graph_group" style="stroke:#FFAF37;stroke-width:2.0;"/><polygon fill="none" points="93.43,307.49,89.7541,326.1042,101.6578,324.5869,93.43,307.49" style="stroke:#FFAF37;stroke-width:2.0;"/></g><!--reverse link microsoft_graph_entity to microsoft_graph_group--><g id="link_microsoft_graph_entity_microsoft_graph_group"><path codeLine="41" d="M231.8909,421.091 C205.7509,451.611 166.64,497.27 140.46,527.83 " fill="none" id="microsoft_graph_entity-backto-microsoft_graph_group" style="stroke:#FFAF37;stroke-width:2.0;"/><polygon fill="none" points="243.6,407.42,227.3339,417.188,236.4479,424.9941,243.6,407.42" style="stroke:#FFAF37;stroke-width:2.0;"/></g><!--reverse link resource to microsoft_resource--><g id="link_resource_microsoft_resource"><path codeLine="42" d="M160.6869,61.3233 C184.1369,91.8433 218.75,136.9 242.23,167.47 " fill="none" id="resource-backto-microsoft_resource" style="stroke:#FFAF37;stroke-width:2.0;"/><polygon fill="none" points="149.72,47.05,155.9291,64.9789,165.4447,57.6677,149.72,47.05" style="stroke:#FFAF37;stroke-width:2.0;"/></g><!--SRC=[XPBDRi8m48JlVWfBd2EHeXQGUg58LNj1LUaT6NkTMCHsj7QAwC-xDsa06IU4etS-pywkDbS2AEZI7wW6lGLqnEsKAHaoJHU8Th-qXKKwafB9oJGMdwtnDu4Lqq1VeFW4hpYBYOzSyPq1v-XT83qnlilGLaQqzXwPSRK4nWVKic3EBRn7jQqy1674V3kJCYPZqz54fDC7w60M1U0H6O_78ft7oCrMWtEVYRNw0fg6IrjP3vsOdHR_r63AXWX2TWOzwLSplZ4XbCdeVL1xRpEX0RoehtCcxBwX9IjSsCPvGB3-KCAoCnNCPq9EU-7NQp3XpUfe8vNqcv3VOq4hZjPPwJSPiZBVr6UYwfCU80Oi49oja4EeNjREhyUV94dQEAJ7e9Nxmv4sGJyIErvCDVJbQkkJGFu0]--></g></svg>

<svg xmlns="http://www.w3.org/2000/svg" width="385" height="573" viewBox="0 0 385 573"><rect width="90" height="39.789" x="46" y="267.58" fill="#3D176E" rx="2.5" ry="2.5" style="stroke:#000d19;stroke-width:.5"/><circle cx="61" cy="287.474" r="11" fill="#ADD1B2" style="stroke:#181818;stroke-width:1"/><path d="M63.969 293.115q-.578.297-1.219.438-.64.156-1.344.156-2.5 0-3.828-1.64-1.312-1.657-1.312-4.782t1.312-4.781q1.328-1.656 3.828-1.656.703 0 1.344.156.656.156 1.219.453v2.719q-.625-.579-1.219-.844-.594-.281-1.219-.281-1.343 0-2.031 1.078-.687 1.062-.687 3.156t.687 3.172q.688 1.062 2.031 1.062.625 0 1.219-.265.594-.281 1.219-.86z"/><text x="80" y="293.36" fill="#D9B8FF" font-family="Helvetica" font-size="17" textLength="48">group</text><rect width="236" height="39.789" x="142" y="367.37" fill="#3D176E" rx="2.5" ry="2.5" style="stroke:#000d19;stroke-width:.5"/><circle cx="157" cy="387.264" r="11" fill="#ADD1B2" style="stroke:#181818;stroke-width:1"/><path d="M159.969 392.905q-.578.297-1.219.438-.64.156-1.344.156-2.5 0-3.828-1.64-1.312-1.657-1.312-4.782t1.312-4.781q1.328-1.656 3.828-1.656.703 0 1.344.156.656.156 1.219.453v2.719q-.625-.579-1.219-.844-.594-.281-1.219-.281-1.344 0-2.031 1.078-.687 1.062-.687 3.156t.687 3.172q.688 1.062 2.031 1.062.625 0 1.219-.265.594-.281 1.219-.86z"/><text x="176" y="393.15" fill="#D9B8FF" font-family="Helvetica" font-size="17" textLength="194">microsoft_graph_entity</text><rect width="234" height="39.789" x="7" y="528.16" fill="#3D176E" rx="2.5" ry="2.5" style="stroke:#000d19;stroke-width:.5"/><circle cx="22" cy="548.054" r="11" fill="#ADD1B2" style="stroke:#181818;stroke-width:1"/><path d="M24.969 553.695q-.578.297-1.219.438-.64.156-1.344.156-2.5 0-3.828-1.64-1.312-1.657-1.312-4.782t1.312-4.781q1.328-1.657 3.828-1.657.703 0 1.344.157.656.156 1.219.453v2.719q-.625-.579-1.219-.844-.594-.281-1.219-.281-1.343 0-2.031 1.078-.687 1.062-.687 3.156t.687 3.172q.688 1.062 2.031 1.062.625 0 1.219-.265.594-.282 1.219-.86z"/><text x="41" y="553.94" fill="#D9B8FF" font-family="Helvetica" font-size="17" textLength="192">microsoft_graph_group</text><rect width="200" height="39.789" x="157" y="167.79" fill="#3D176E" rx="2.5" ry="2.5" style="stroke:#000d19;stroke-width:.5"/><circle cx="172" cy="187.685" r="11" fill="#ADD1B2" style="stroke:#181818;stroke-width:1"/><path d="M174.969 193.325q-.578.297-1.219.438-.64.156-1.344.156-2.5 0-3.828-1.64-1.312-1.657-1.312-4.782t1.312-4.781q1.328-1.656 3.828-1.656.703 0 1.344.156.656.156 1.219.453v2.719q-.625-.578-1.219-.844-.594-.281-1.219-.281-1.344 0-2.031 1.078-.687 1.062-.687 3.156t.687 3.172q.688 1.062 2.031 1.062.625 0 1.219-.265.594-.281 1.219-.86z"/><text x="191" y="193.57" fill="#D9B8FF" font-family="Helvetica" font-size="17" textLength="158">microsoft_resource</text><rect width="113" height="39.789" x="78.5" y="7" fill="#3D176E" rx="2.5" ry="2.5" style="stroke:#000d19;stroke-width:.5"/><circle cx="93.5" cy="26.895" r="11" fill="#ADD1B2" style="stroke:#181818;stroke-width:1"/><path d="M96.469 32.535q-.578.297-1.219.438-.64.156-1.344.156-2.5 0-3.828-1.64-1.312-1.657-1.312-4.782t1.312-4.781q1.328-1.656 3.828-1.656.703 0 1.344.156.656.156 1.219.453v2.719q-.625-.578-1.219-.844-.594-.281-1.219-.281-1.344 0-2.031 1.078-.687 1.062-.687 3.156T92 29.879q.688 1.062 2.031 1.062.625 0 1.219-.265.594-.281 1.219-.86z"/><text x="112.5" y="32.78" fill="#D9B8FF" font-family="Helvetica" font-size="17" textLength="71">resource</text><g fill="none"><path d="M128.744 64.655c-8.11 47.71-26.254 154.325-34.444 202.425" style="stroke:#ffaf37;stroke-width:2"/><path d="m131.76 46.91-8.932 16.74 11.83 2.01z" style="stroke:#ffaf37;stroke-width:2"/></g><g fill="none"><path d="M257.566 225.988c.58 37.77 1.564 103.062 2.144 140.892" style="stroke:#ffaf37;stroke-width:2"/><path d="m257.29 207.99-5.723 18.09 11.999-.184z" style="stroke:#ffaf37;stroke-width:2"/></g><path fill="none" d="M95.706 325.346c6.08 47.7 19.684 154.214 25.824 202.314m-28.1-220.17-3.676 18.614 11.904-1.517zm138.46 113.601c-26.14 30.52-65.25 76.179-91.43 106.739M243.6 407.42l-16.266 9.768 9.114 7.806z" style="stroke:#ffaf37;stroke-width:2"/><g fill="none"><path d="M160.687 61.323c23.45 30.52 58.063 75.577 81.543 106.147" style="stroke:#ffaf37;stroke-width:2"/><path d="m149.72 47.05 6.21 17.929 9.515-7.311z" style="stroke:#ffaf37;stroke-width:2"/></g></svg>
